static/assets/images/tokens/meth.svg

<svg width="256" height="256" viewBox="0 0 256 256" fill="none" xmlns="http://www.w3.org/2000/svg">
<path d="M256 128C256 57.3075 198.692 0 128 0C57.3075 0 0 57.3075 0 128C0 198.692 57.3075 256 128 256C198.692 256 256 198.692 256 128Z" fill="white"/>
<path d="M85.1072 118.253L128.5 97.5622V41L85.1072 118.253Z" fill="#FF596E"/>
<path d="M128.5 97.5622L128.495 142.628L171.893 118.253L128.5 97.5622Z" fill="#FF596E"/>
<path d="M128.5 97.5622L128.505 142.628L85.1072 118.253L128.5 97.5622Z" fill="#800010"/>
<path d="M171.893 118.253L128.5 97.5622V41L171.893 118.253Z" fill="#800010"/>
<path d="M128.495 160.024V208.059L84.2644 135.18L128.495 160.024Z" fill="#FF596E"/>
<path d="M128.495 160.024V208.059L172.727 135.18L128.495 160.024ZM180.032 146.185L190.056 175.091L212 137.412L180.032 146.185Z" fill="#800010"/>
<path d="M190.056 175.091L212 168.411V137.412L190.056 175.091Z" fill="#FF596E"/>
<path d="M211.986 168.411L180.019 223.315L155.74 234L190.038 175.091L211.986 168.411Z" fill="#800010"/>
<path d="M45.0045 168.411L76.9677 223.315L101.247 234L66.9488 175.091L45.0045 168.411Z" fill="#FF596E"/>
<path d="M128.495 234L76.9677 146.185L66.9488 175.091L101.247 234H128.495Z" fill="#800010"/>
<path d="M76.9677 146.185L66.9488 175.091L45 137.412L76.9677 146.185Z" fill="#FF596E"/>
<path d="M66.9488 175.091L45.0045 168.411L45 137.412L66.9488 175.091Z" fill="#800010"/>
<path d="M128.495 234L180.028 146.185L190.047 175.091L155.749 234H128.495Z" fill="#FF596E"/>
</svg>

<svg xmlns="http://www.w3.org/2000/svg" fill="none" viewBox="0 0 256 256"><path fill="#fff" d="M256 128C256 57.308 198.692 0 128 0S0 57.308 0 128s57.308 128 128 128 128-57.308 128-128"/><path fill="#FF596E" d="m85.107 118.253 43.393-20.69V41z"/><path fill="#FF596E" d="m128.5 97.562-.005 45.066 43.398-24.375z"/><path fill="#800010" d="m128.5 97.562.005 45.066-43.398-24.375z"/><path fill="#800010" d="M171.893 118.253 128.5 97.563V41z"/><path fill="#FF596E" d="M128.495 160.024v48.035l-44.23-72.879z"/><path fill="#800010" d="M128.495 160.024v48.035l44.232-72.879zm51.537-13.839 10.024 28.906L212 137.412z"/><path fill="#FF596E" d="m190.056 175.091 21.944-6.68v-30.999z"/><path fill="#800010" d="m211.986 168.411-31.967 54.904L155.74 234l34.298-58.909z"/><path fill="#FF596E" d="m45.005 168.411 31.963 54.904L101.247 234l-34.298-58.909z"/><path fill="#800010" d="m128.495 234-51.527-87.815-10.02 28.906 34.3 58.909z"/><path fill="#FF596E" d="m76.968 146.185-10.02 28.906L45 137.412z"/><path fill="#800010" d="m66.949 175.091-21.944-6.68L45 137.412z"/><path fill="#FF596E" d="m128.495 234 51.533-87.815 10.019 28.906L155.749 234z"/></svg>
